X: 1663
T: Le A Le A La
B: australian traditional tunes wiki
M:2/4
L:1/16
R: Set Tune
Q: 1/4=100
K:D
V:1 
|:f2|"D"a2f2 a2f2|"A7"e2e2 e3f|g2e2 g2e2|"D"d2d2 d3f|a2f2 a2f2|"A7"e2e2 e3f|g2e2 g2e2|"D"d2d2 d2:|
|:A2|"D"A2A2 B2A2|"A7"c2c2 c3A|c2c2 B2A2|"D"d2d2 d3A|"G"e2d2 c2B2|"A"B2A2 A3A|"A7"c2B2 G2E2|"D"D2D2 D2:|
% abcbook-tune_id 6342d53a1633e78379b2743a


% abcbook-boost 0
% abcbook-tablature 
% abcbook-transpose 
% abcbook-lastupdated 1665324376800
% abcbook-soundfonts 
% abcbook-repeats 1
% NFF Book 2013

